X: 20951
T: Sleepy Maggy
%R: reel
B: James Oswald "The Caledonian Pocket Companion" v.2 p.95 #1
Z: 2019 John Chambers <jc:trillian.mit.edu>
M: C
L: 1/8
K: Bm
|:"_Brisk"\
 f2Bb fBde | f2Bb eAce |\
Tf2Bb fBde | (f/e/f/g/) af eAce :|
|:\
 fBdB fBde | fBdB cAce |\
 fBdB fBde | (f/e/f/g/) af eAce :|
|:\
 Bbb2 afdf | Bbb2 aecA |\
 Bbba fbaf | aa (b/a/g/f/) eAce :|
|:\
 BBdB fBbB | BBdB cAaA |\
 BBdB fBbf | aa (b/a/g/f/) eAce :|
